assets/avatar/avatar2.svg

<svg fill="none" height="200" viewBox="0 0 200 200" width="200" xmlns="http://www.w3.org/2000/svg" xmlns:xlink="http://www.w3.org/1999/xlink"><linearGradient id="a" gradientUnits="userSpaceOnUse" x1="105.322" x2="105.322" y1="100" y2="19.9983"><stop offset="0" stop-color="#e05f51"/><stop offset="1" stop-color="#e05f51"/></linearGradient><clipPath id="b"><rect height="200" rx="100" width="200"/></clipPath><g clip-path="url(#b)"><path d="m120.667 116v8c0 10.667 15.333 15.333 15.333 15.333s-17.667 13.334-36 13.334c-18.3333 0-36-13.334-36-13.334s15.454-4.666 15.3333-15.333c-.1206-10.667-.04-16.933-.1206-35.208-9.5547-12.3847-8.9414-20.6967-3.7167-26.542 17.504-19.5833 65.171-12.9167 65.171-12.9167s4.448 47.9954-5.667 61.9997c-4.333 6-14.333 4.667-14.333 4.667z" fill="#ffd4b3"/><path d="m120.667 116c-14.667-1.667-23.3335-8-23.3335-8 5.4715 8.095 13.8105 13.813 23.3335 16z" fill="#ffdbc9"/><path d="m170 159.539c6.347 12.904 10 42.666 10 42.666h-160s3.6547-29.765 10-42.666c6.3453-12.902 43.4-24.868 43.4-24.868 7.142 14.662 46.339 14.662 53.181-.004 0 0 37.072 11.967 43.419 24.872z" fill="#000"/><path d="m97.3335 185.333c0-.527.1564-1.043.4494-1.481.293-.439.7095-.781 1.1968-.982.4872-.202 1.0233-.255 1.5403-.152.518.103.993.357 1.366.73s.627.848.73 1.365c.102.517.05 1.054-.152 1.541s-.544.904-.982 1.197c-.439.293-.954.449-1.482.449-.7071 0-1.3854-.281-1.8855-.781s-.781-1.178-.781-1.886zm0-13.333c0-.527.1564-1.043.4494-1.482.293-.438.7095-.78 1.1968-.982.4872-.202 1.0233-.254 1.5403-.151.518.102.993.356 1.366.729s.627.848.73 1.366c.102.517.05 1.053-.152 1.54-.202.488-.544.904-.982 1.197-.439.293-.954.45-1.482.45-.7071 0-1.3854-.281-1.8855-.781s-.781-1.179-.781-1.886zm0-13.333c0-.528.1564-1.043.4494-1.482.293-.438.7095-.78 1.1968-.982.4872-.202 1.0233-.255 1.5403-.152.518.103.993.357 1.366.73s.627.848.73 1.365c.102.518.05 1.054-.152 1.541s-.544.904-.982 1.197c-.439.293-.954.449-1.482.449-.7071 0-1.3854-.281-1.8855-.781s-.781-1.178-.781-1.885z" fill="#fff"/><path d="m87.4367 68.806c-2.12-1.8207-4.696-3.0467-8.3374-1.1547-8.6326 4.482-2.0993 21.682 5.5674 21.682 2 0 2.9946 6.2813-5.91 10.6667 0-7-10.6667-24.3334-11.6-40.1147-10.7334-3.9967-8.0667-19.988-.698-19.988-1.176-14.6587 22.298-22.2307 31.3873-13.818 9.244-11.0793 32.577-5.4127 33.986 4.1993 16.045-8.5646 26.591 16.0547 11.568 25.612-6.182 3.9334-20.643 5.43-41.519 5.43-3.151 0-4.9163.7827-4.035 4.6794 1.706 7.5506-2.2547 12.3066-10.4093 2.806z" fill="url(#a)"/></g></svg>

<svg width="200" height="200" viewBox="0 0 200 200" fill="none" xmlns="http://www.w3.org/2000/svg">
<g clip-path="url(#clip0_252_2869)">
<path d="M120.667 116V124C120.667 134.667 136 139.333 136 139.333C136 139.333 118.333 152.667 100 152.667C81.6667 152.667 64 139.333 64 139.333C64 139.333 79.454 134.667 79.3333 124C79.2127 113.333 79.2933 107.067 79.2127 88.792C69.658 76.4073 70.2713 68.0953 75.496 62.25C93 42.6667 140.667 49.3333 140.667 49.3333C140.667 49.3333 145.115 97.3287 135 111.333C130.667 117.333 120.667 116 120.667 116Z" fill="#FFD4B3"/>
<g style="mix-blend-mode:multiply">
<path d="M120.667 116C106 114.333 97.3335 108 97.3335 108C102.805 116.095 111.144 121.813 120.667 124V116Z" fill="#FFDBC9"/>
</g>
<path d="M170 159.539C176.347 172.443 180 202.205 180 202.205H20C20 202.205 23.6547 172.44 30 159.539C36.3453 146.637 73.4 134.671 73.4 134.671C80.542 149.333 119.739 149.333 126.581 134.667C126.581 134.667 163.653 146.634 170 159.539Z" fill="black"/>
<path d="M97.3335 185.333C97.3335 184.806 97.4899 184.29 97.7829 183.852C98.0759 183.413 98.4924 183.071 98.9797 182.87C99.4669 182.668 100.003 182.615 100.52 182.718C101.038 182.821 101.513 183.075 101.886 183.448C102.259 183.821 102.513 184.296 102.616 184.813C102.718 185.33 102.666 185.867 102.464 186.354C102.262 186.841 101.92 187.258 101.482 187.551C101.043 187.844 100.528 188 100 188C99.2929 188 98.6146 187.719 98.1145 187.219C97.6144 186.719 97.3335 186.041 97.3335 185.333ZM97.3335 172C97.3335 171.473 97.4899 170.957 97.7829 170.518C98.0759 170.08 98.4924 169.738 98.9797 169.536C99.4669 169.334 100.003 169.282 100.52 169.385C101.038 169.487 101.513 169.741 101.886 170.114C102.259 170.487 102.513 170.962 102.616 171.48C102.718 171.997 102.666 172.533 102.464 173.02C102.262 173.508 101.92 173.924 101.482 174.217C101.043 174.51 100.528 174.667 100 174.667C99.2929 174.667 98.6146 174.386 98.1145 173.886C97.6144 173.386 97.3335 172.707 97.3335 172ZM97.3335 158.667C97.3335 158.139 97.4899 157.624 97.7829 157.185C98.0759 156.747 98.4924 156.405 98.9797 156.203C99.4669 156.001 100.003 155.948 100.52 156.051C101.038 156.154 101.513 156.408 101.886 156.781C102.259 157.154 102.513 157.629 102.616 158.146C102.718 158.664 102.666 159.2 102.464 159.687C102.262 160.174 101.92 160.591 101.482 160.884C101.043 161.177 100.528 161.333 100 161.333C99.2929 161.333 98.6146 161.052 98.1145 160.552C97.6144 160.052 97.3335 159.374 97.3335 158.667Z" fill="white"/>
<path d="M87.4367 68.806C85.3167 66.9853 82.7407 65.7593 79.0993 67.6513C70.4667 72.1333 77 89.3333 84.6667 89.3333C86.6667 89.3333 87.6613 95.6146 78.7567 100C78.7567 93 68.09 75.6666 67.1567 59.8853C56.4233 55.8886 59.09 39.8973 66.4587 39.8973C65.2827 25.2386 88.7567 17.6666 97.846 26.0793C107.09 15 130.423 20.6666 131.832 30.2786C147.877 21.714 158.423 46.3333 143.4 55.8906C137.218 59.824 122.757 61.3206 101.881 61.3206C98.73 61.3206 96.9647 62.1033 97.846 66C99.552 73.5506 95.5913 78.3066 87.4367 68.806Z" fill="url(#paint0_linear_252_2869)"/>
</g>
<defs>
<linearGradient id="paint0_linear_252_2869" x1="105.322" y1="100" x2="105.322" y2="19.9983" gradientUnits="userSpaceOnUse">
<stop stop-color="#E05F51"/>
<stop offset="1" stop-color="#E05F51"/>
</linearGradient>
<clipPath id="clip0_252_2869">
<rect width="200" height="200" rx="100" fill="white"/>
</clipPath>
</defs>
</svg>
